icons/modern/womans-clothes.svg

<svg width="32" height="32" viewBox="0 0 32 32" fill="none" xmlns="http://www.w3.org/2000/svg">
<path d="M6.8834 9.84375C7.4959 9.475 8.08911 9.26823 8.24276 9.24219L9.02401 9.97656L8.10996 20.0859C8.10996 19.9557 7.97714 19.6797 7.44588 19.6172C6.78181 19.5391 4.76618 19.2188 3.39899 17.2656C2.48277 16.02 2.15368 14.5529 2.10972 13.4804C2.0935 13.0847 2.31456 12.7271 2.64905 12.515C4.11384 11.5863 6.3419 10.1698 6.8834 9.84375Z" fill="url(#paint0_radial_18_16960)"/>
<path d="M6.8834 9.84375C7.4959 9.475 8.08911 9.26823 8.24276 9.24219L9.02401 9.97656L8.10996 20.0859C8.10996 19.9557 7.97714 19.6797 7.44588 19.6172C6.78181 19.5391 4.76618 19.2188 3.39899 17.2656C2.48277 16.02 2.15368 14.5529 2.10972 13.4804C2.0935 13.0847 2.31456 12.7271 2.64905 12.515C4.11384 11.5863 6.3419 10.1698 6.8834 9.84375Z" fill="url(#paint1_linear_18_16960)"/>
<path d="M6.8834 9.84375C7.4959 9.475 8.08911 9.26823 8.24276 9.24219L9.02401 9.97656L8.10996 20.0859C8.10996 19.9557 7.97714 19.6797 7.44588 19.6172C6.78181 19.5391 4.76618 19.2188 3.39899 17.2656C2.48277 16.02 2.15368 14.5529 2.10972 13.4804C2.0935 13.0847 2.31456 12.7271 2.64905 12.515C4.11384 11.5863 6.3419 10.1698 6.8834 9.84375Z" fill="url(#paint2_linear_18_16960)"/>
<g filter="url(#filter0_i_18_16960)">
<path d="M25.1166 9.83203C24.5041 9.46328 23.9109 9.25651 23.7572 9.23047L22.976 9.96484L23.89 20.0742C23.89 19.944 24.0229 19.668 24.5541 19.6055C25.2182 19.5273 27.2338 19.207 28.601 17.2539C29.5172 16.0083 29.8463 14.5411 29.8903 13.4687C29.9065 13.073 29.6854 12.7153 29.3509 12.5033C27.8862 11.5746 25.6581 10.158 25.1166 9.83203Z" fill="url(#paint3_linear_18_16960)"/>
</g>
<path d="M25.1166 9.83203C24.5041 9.46328 23.9109 9.25651 23.7572 9.23047L22.976 9.96484L23.89 20.0742C23.89 19.944 24.0229 19.668 24.5541 19.6055C25.2182 19.5273 27.2338 19.207 28.601 17.2539C29.5172 16.0083 29.8463 14.5411 29.8903 13.4687C29.9065 13.073 29.6854 12.7153 29.3509 12.5033C27.8862 11.5746 25.6581 10.158 25.1166 9.83203Z" fill="url(#paint4_radial_18_16960)"/>
<g filter="url(#filter1_i_18_16960)">
<path d="M8.10205 9.29621L8.14447 28.0634C8.14564 28.5803 8.47532 29.0426 8.97313 29.1816C13.5083 30.3353 18.6021 30.2571 23.1048 29.1767C23.6037 29.0416 23.9336 28.5803 23.9348 28.0634L23.9772 9.29621C23.7741 9.17902 22.6522 9.02277 21.9998 9.17902C20.4534 9.60402 17.7427 10.0853 16.0396 10.0853C14.3366 10.0853 11.6259 9.60402 10.0795 9.17902C9.42706 9.02277 8.30518 9.17902 8.10205 9.29621Z" fill="url(#paint5_linear_18_16960)"/>
</g>
<path d="M8.10205 9.29621L8.14447 28.0634C8.14564 28.5803 8.47532 29.0426 8.97313 29.1816C13.5083 30.3353 18.6021 30.2571 23.1048 29.1767C23.6037 29.0416 23.9336 28.5803 23.9348 28.0634L23.9772 9.29621C23.7741 9.17902 22.6522 9.02277 21.9998 9.17902C20.4534 9.60402 17.7427 10.0853 16.0396 10.0853C14.3366 10.0853 11.6259 9.60402 10.0795 9.17902C9.42706 9.02277 8.30518 9.17902 8.10205 9.29621Z" fill="url(#paint6_radial_18_16960)"/>
<path d="M8.10205 9.29621L8.14447 28.0634C8.14564 28.5803 8.47532 29.0426 8.97313 29.1816C13.5083 30.3353 18.6021 30.2571 23.1048 29.1767C23.6037 29.0416 23.9336 28.5803 23.9348 28.0634L23.9772 9.29621C23.7741 9.17902 22.6522 9.02277 21.9998 9.17902C20.4534 9.60402 17.7427 10.0853 16.0396 10.0853C14.3366 10.0853 11.6259 9.60402 10.0795 9.17902C9.42706 9.02277 8.30518 9.17902 8.10205 9.29621Z" fill="url(#paint7_radial_18_16960)"/>
<path d="M10.0264 9.16724L16.0238 15.5313L21.7074 9.25651C20.1296 9.66039 17.6397 10.0853 16.0395 10.0853C14.3365 10.0853 11.6258 9.60403 10.0793 9.17903C10.062 9.17488 10.0443 9.17095 10.0264 9.16724Z" fill="url(#paint8_radial_18_16960)"/>
<path d="M10.0264 9.16724L16.0238 15.5313L21.7074 9.25651C20.1296 9.66039 17.6397 10.0853 16.0395 10.0853C14.3365 10.0853 11.6258 9.60403 10.0793 9.17903C10.062 9.17488 10.0443 9.17095 10.0264 9.16724Z" fill="url(#paint9_radial_18_16960)"/>
<g filter="url(#filter2_ii_18_16960)">
<path d="M14.4562 14.5766C14.9654 15.1545 15.4315 15.6837 15.8183 16.1143C15.9366 16.246 16.1425 16.246 16.2608 16.1143C16.6476 15.6837 17.1137 15.1545 17.6229 14.5766C19.2955 12.6781 21.4321 10.3037 22.7427 9.11328C22.3467 9.11328 21.9699 9.00012 21.7176 8.94427C21.5561 8.90852 21.3844 8.94002 21.2586 9.04746C20.1943 9.95625 18.9235 11.4079 17.824 12.664C17.1631 13.419 16.564 14.1034 16.1088 14.5567C16.0704 14.595 16.0087 14.595 15.9703 14.5567C15.5151 14.1034 14.916 13.419 14.2551 12.664C13.1556 11.4079 11.8848 9.95625 10.8205 9.04746C10.6947 8.94002 10.523 8.90852 10.3615 8.94427C10.1092 9.00012 9.73244 9.11328 9.33643 9.11328C10.6471 10.3037 12.7836 12.6781 14.4562 14.5766Z" fill="url(#paint10_linear_18_16960)"/>
</g>
<g filter="url(#filter3_f_18_16960)">
<path d="M23.3521 9.75C23.4979 9.74479 23.9146 9.8125 24.4146 10.125C24.9146 10.4375 27.7166 12.2344 29.0552 13.0937" stroke="#FF8EE2" stroke-width="0.5" stroke-linecap="round"/>
</g>
<g filter="url(#filter4_f_18_16960)">
<path d="M12.2271 10.0469C13.4041 10.3958 16.5771 10.8844 19.8521 10.0469" stroke="url(#paint11_radial_18_16960)" stroke-width="0.25" stroke-linecap="round"/>
</g>
<defs>
<filter id="filter0_i_18_16960" x="22.9761" y="8.73047" width="7.16504" height="11.3438" filterUnits="userSpaceOnUse" color-interpolation-filters="sRGB">
<feFlood flood-opacity="0" result="BackgroundImageFix"/>
<feBlend mode="normal" in="SourceGraphic" in2="BackgroundImageFix" result="shape"/>
<feColorMatrix in="SourceAlpha" type="matrix" values="0 0 0 0 0 0 0 0 0 0 0 0 0 0 0 0 0 0 127 0" result="hardAlpha"/>
<feOffset dx="0.25" dy="-0.5"/>
<feGaussianBlur stdDeviation="0.5"/>
<feComposite in2="hardAlpha" operator="arithmetic" k2="-1" k3="1"/>
<feColorMatrix type="matrix" values="0 0 0 0 0.960784 0 0 0 0 0.305882 0 0 0 0 0.764706 0 0 0 1 0"/>
<feBlend mode="normal" in2="shape" result="effect1_innerShadow_18_16960"/>
</filter>
<filter id="filter1_i_18_16960" x="8.10205" y="8.61328" width="16.3752" height="21.404" filterUnits="userSpaceOnUse" color-interpolation-filters="sRGB">
<feFlood flood-opacity="0" result="BackgroundImageFix"/>
<feBlend mode="normal" in="SourceGraphic" in2="BackgroundImageFix" result="shape"/>
<feColorMatrix in="SourceAlpha" type="matrix" values="0 0 0 0 0 0 0 0 0 0 0 0 0 0 0 0 0 0 127 0" result="hardAlpha"/>
<feOffset dx="0.5" dy="-0.5"/>
<feGaussianBlur stdDeviation="0.75"/>
<feComposite in2="hardAlpha" operator="arithmetic" k2="-1" k3="1"/>
<feColorMatrix type="matrix" values="0 0 0 0 0.909804 0 0 0 0 0.223529 0 0 0 0 0.717647 0 0 0 1 0"/>
<feBlend mode="normal" in2="shape" result="effect1_innerShadow_18_16960"/>
</filter>
<filter id="filter2_ii_18_16960" x="9.23643" y="8.83018" width="13.6063" height="7.48293" filterUnits="userSpaceOnUse" color-interpolation-filters="sRGB">
<feFlood flood-opacity="0" result="BackgroundImageFix"/>
<feBlend mode="normal" in="SourceGraphic" in2="BackgroundImageFix" result="shape"/>
<feColorMatrix in="SourceAlpha" type="matrix" values="0 0 0 0 0 0 0 0 0 0 0 0 0 0 0 0 0 0 127 0" result="hardAlpha"/>
<feOffset dx="-0.1" dy="0.1"/>
<feGaussianBlur stdDeviation="0.075"/>
<feComposite in2="hardAlpha" operator="arithmetic" k2="-1" k3="1"/>
<feColorMatrix type="matrix" values="0 0 0 0 0.913725 0 0 0 0 0.411765 0 0 0 0 0.662745 0 0 0 1 0"/>
<feBlend mode="normal" in2="shape" result="effect1_innerShadow_18_16960"/>
<feColorMatrix in="SourceAlpha" type="matrix" values="0 0 0 0 0 0 0 0 0 0 0 0 0 0 0 0 0 0 127 0" result="hardAlpha"/>
<feOffset dx="0.1" dy="-0.1"/>
<feGaussianBlur stdDeviation="0.075"/>
<feComposite in2="hardAlpha" operator="arithmetic" k2="-1" k3="1"/>
<feColorMatrix type="matrix" values="0 0 0 0 0.898039 0 0 0 0 0.247059 0 0 0 0 0.615686 0 0 0 1 0"/>
<feBlend mode="normal" in2="effect1_innerShadow_18_16960" result="effect2_innerShadow_18_16960"/>
</filter>
<filter id="filter3_f_18_16960" x="22.3521" y="8.74973" width="7.70312" height="5.34406" filterUnits="userSpaceOnUse" color-interpolation-filters="sRGB">
<feFlood flood-opacity="0" result="BackgroundImageFix"/>
<feBlend mode="normal" in="SourceGraphic" in2="BackgroundImageFix" result="shape"/>
<feGaussianBlur stdDeviation="0.375" result="effect1_foregroundBlur_18_16960"/>
</filter>
<filter id="filter4_f_18_16960" x="11.8521" y="9.67184" width="8.375" height="1.21246" filterUnits="userSpaceOnUse" color-interpolation-filters="sRGB">
<feFlood flood-opacity="0" result="BackgroundImageFix"/>
<feBlend mode="normal" in="SourceGraphic" in2="BackgroundImageFix" result="shape"/>
<feGaussianBlur stdDeviation="0.125" result="effect1_foregroundBlur_18_16960"/>
</filter>
<radialGradient id="paint0_radial_18_16960" cx="0" cy="0" r="1" gradientUnits="userSpaceOnUse" gradientTransform="translate(9.34699 13.0197) rotate(141.499) scale(7.89978 10.2983)">
<stop offset="0.33454" stop-color="#F96ACF"/>
<stop offset="1" stop-color="#E44CBA"/>
</radialGradient>
<linearGradient id="paint1_linear_18_16960" x1="8.6845" y1="20.7855" x2="5.96097" y2="19.8653" gradientUnits="userSpaceOnUse">
<stop stop-color="#DE47B0"/>
<stop offset="1" stop-color="#DE47B0" stop-opacity="0"/>
</linearGradient>
<linearGradient id="paint2_linear_18_16960" x1="3.94586" y1="11.25" x2="4.85211" y2="12.375" gradientUnits="userSpaceOnUse">
<stop offset="0.0818905" stop-color="#E665B5"/>
<stop offset="1" stop-color="#E665B5" stop-opacity="0"/>
</linearGradient>
<linearGradient id="paint3_linear_18_16960" x1="24.227" y1="9.90625" x2="27.0083" y2="19.0937" gradientUnits="userSpaceOnUse">
<stop offset="0.456882" stop-color="#FF6ED9"/>
<stop offset="1" stop-color="#FA5BCA"/>
</linearGradient>
<radialGradient id="paint4_radial_18_16960" cx="0" cy="0" r="1" gradientUnits="userSpaceOnUse" gradientTransform="translate(24.102 13.5) rotate(90) scale(4.34375 0.71875)">
<stop stop-color="#FF81D9"/>
<stop offset="1" stop-color="#FF81D9" stop-opacity="0"/>
</radialGradient>
<linearGradient id="paint5_linear_18_16960" x1="16.0396" y1="15.3125" x2="16.0396" y2="30.0172" gradientUnits="userSpaceOnUse">
<stop stop-color="#F972CA"/>
<stop offset="1" stop-color="#F949C4"/>
</linearGradient>
<radialGradient id="paint6_radial_18_16960" cx="0" cy="0" r="1" gradientUnits="userSpaceOnUse" gradientTransform="translate(7.78955 10.25) rotate(90) scale(11.25 5.41274)">
<stop offset="0.355346" stop-color="#F76AC8"/>
<stop offset="1" stop-color="#F360C4" stop-opacity="0"/>
</radialGradient>
<radialGradient id="paint7_radial_18_16960" cx="0" cy="0" r="1" gradientUnits="userSpaceOnUse" gradientTransform="translate(23.9772 14.9688) rotate(90) scale(10.2813 1.40643)">
<stop offset="0.0772727" stop-color="#FF83DA"/>
<stop offset="1" stop-color="#FF83DA" stop-opacity="0"/>
</radialGradient>
<radialGradient id="paint8_radial_18_16960" cx="0" cy="0" r="1" gradientUnits="userSpaceOnUse" gradientTransform="translate(15.8669 9.71876) rotate(90) scale(5.4375 8.52102)">
<stop offset="0.247312" stop-color="#CE59A3"/>
<stop offset="1" stop-color="#B8387F"/>
</radialGradient>
<radialGradient id="paint9_radial_18_16960" cx="0" cy="0" r="1" gradientUnits="userSpaceOnUse" gradientTransform="translate(19.3207 12.3492) rotate(146.867) scale(5.82158 1.75385)">
<stop stop-color="#BA3A82"/>
<stop offset="1" stop-color="#BA3A82" stop-opacity="0"/>
</radialGradient>
<linearGradient id="paint10_linear_18_16960" x1="22.0707" y1="9.40625" x2="15.1645" y2="15.75" gradientUnits="userSpaceOnUse">
<stop stop-color="#DD53A4"/>
<stop offset="1" stop-color="#E24B9B"/>
</linearGradient>
<radialGradient id="paint11_radial_18_16960" cx="0" cy="0" r="1" gradientUnits="userSpaceOnUse" gradientTransform="translate(16.0396 10.2781) rotate(90) scale(0.925036 5.03125)">
<stop stop-color="#D463A8"/>
<stop offset="1" stop-color="#D463A8" stop-opacity="0"/>
</radialGradient>
</defs>
</svg>

<svg width="32" height="32" fill="none" xmlns="http://www.w3.org/2000/svg"><path d="M6.883 9.844c.613-.369 1.206-.576 1.36-.602l.781.735-.914 10.109c0-.13-.133-.406-.664-.469-.664-.078-2.68-.398-4.047-2.351-.916-1.246-1.245-2.713-1.29-3.786-.015-.395.206-.753.54-.965 1.465-.929 3.693-2.345 4.234-2.671Z" fill="url(#a)"/><path d="M6.883 9.844c.613-.369 1.206-.576 1.36-.602l.781.735-.914 10.109c0-.13-.133-.406-.664-.469-.664-.078-2.68-.398-4.047-2.351-.916-1.246-1.245-2.713-1.29-3.786-.015-.395.206-.753.54-.965 1.465-.929 3.693-2.345 4.234-2.671Z" fill="url(#b)"/><path d="M6.883 9.844c.613-.369 1.206-.576 1.36-.602l.781.735-.914 10.109c0-.13-.133-.406-.664-.469-.664-.078-2.68-.398-4.047-2.351-.916-1.246-1.245-2.713-1.29-3.786-.015-.395.206-.753.54-.965 1.465-.929 3.693-2.345 4.234-2.671Z" fill="url(#c)"/><g filter="url(#d)"><path d="M25.117 9.832c-.613-.369-1.206-.575-1.36-.602l-.781.735.914 10.11c0-.131.133-.407.664-.47.664-.078 2.68-.398 4.047-2.351.916-1.246 1.245-2.713 1.29-3.785.016-.396-.206-.754-.54-.966-1.465-.928-3.693-2.345-4.234-2.671Z" fill="url(#e)"/></g><path d="M25.117 9.832c-.613-.369-1.206-.575-1.36-.602l-.781.735.914 10.11c0-.131.133-.407.664-.47.664-.078 2.68-.398 4.047-2.351.916-1.246 1.245-2.713 1.29-3.785.016-.396-.206-.754-.54-.966-1.465-.928-3.693-2.345-4.234-2.671Z" fill="url(#f)"/><g filter="url(#g)"><path d="m8.102 9.296.042 18.767c.002.517.331.98.83 1.119 4.534 1.153 9.628 1.075 14.13-.005.5-.135.83-.597.83-1.114l.043-18.767c-.203-.117-1.325-.273-1.977-.117-1.547.425-4.257.906-5.96.906-1.703 0-4.414-.481-5.96-.906-.653-.156-1.775 0-1.978.117Z" fill="url(#h)"/></g><path d="m8.102 9.296.042 18.767c.002.517.331.98.83 1.119 4.534 1.153 9.628 1.075 14.13-.005.5-.135.83-.597.83-1.114l.043-18.767c-.203-.117-1.325-.273-1.977-.117-1.547.425-4.257.906-5.96.906-1.703 0-4.414-.481-5.96-.906-.653-.156-1.775 0-1.978.117Z" fill="url(#i)"/><path d="m8.102 9.296.042 18.767c.002.517.331.98.83 1.119 4.534 1.153 9.628 1.075 14.13-.005.5-.135.83-.597.83-1.114l.043-18.767c-.203-.117-1.325-.273-1.977-.117-1.547.425-4.257.906-5.96.906-1.703 0-4.414-.481-5.96-.906-.653-.156-1.775 0-1.978.117Z" fill="url(#j)"/><path d="m10.026 9.167 5.998 6.364 5.683-6.274c-1.577.403-4.067.828-5.668.828-1.703 0-4.413-.481-5.96-.906a1.749 1.749 0 0 0-.053-.012Z" fill="url(#k)"/><path d="m10.026 9.167 5.998 6.364 5.683-6.274c-1.577.403-4.067.828-5.668.828-1.703 0-4.413-.481-5.96-.906a1.749 1.749 0 0 0-.053-.012Z" fill="url(#l)"/><g filter="url(#m)"><path d="M14.456 14.577c.51.578.976 1.107 1.362 1.537a.297.297 0 0 0 .443 0c.387-.43.853-.96 1.362-1.537 1.672-1.899 3.81-4.273 5.12-5.464-.396 0-.773-.113-1.025-.169a.528.528 0 0 0-.46.103c-1.064.91-2.334 2.36-3.434 3.617-.66.755-1.26 1.44-1.715 1.893a.098.098 0 0 1-.139 0c-.455-.454-1.054-1.138-1.715-1.893-1.1-1.256-2.37-2.708-3.435-3.617a.528.528 0 0 0-.459-.103c-.252.056-.629.17-1.025.17 1.311 1.19 3.448 3.564 5.12 5.463Z" fill="url(#n)"/></g><g filter="url(#o)"><path d="M23.352 9.75c.146-.005.563.063 1.063.375.5.313 3.302 2.11 4.64 2.969" stroke="#FF8EE2" stroke-width=".5" stroke-linecap="round"/></g><g filter="url(#p)"><path d="M12.227 10.047c1.177.349 4.35.837 7.625 0" stroke="url(#q)" stroke-width=".25" stroke-linecap="round"/></g><defs><radialGradient id="a" cx="0" cy="0" r="1" gradientUnits="userSpaceOnUse" gradientTransform="matrix(-6.18235 4.91784 -6.41098 -8.05942 9.347 13.02)"><stop offset=".335" stop-color="#F96ACF"/><stop offset="1" stop-color="#E44CBA"/></radialGradient><radialGradient id="f" cx="0" cy="0" r="1" gradientUnits="userSpaceOnUse" gradientTransform="matrix(0 4.34375 -.71875 0 24.102 13.5)"><stop stop-color="#FF81D9"/><stop offset="1" stop-color="#FF81D9" stop-opacity="0"/></radialGradient><radialGradient id="i" cx="0" cy="0" r="1" gradientUnits="userSpaceOnUse" gradientTransform="matrix(0 11.25 -5.41274 0 7.79 10.25)"><stop offset=".355" stop-color="#F76AC8"/><stop offset="1" stop-color="#F360C4" stop-opacity="0"/></radialGradient><radialGradient id="j" cx="0" cy="0" r="1" gradientUnits="userSpaceOnUse" gradientTransform="matrix(0 10.2813 -1.40643 0 23.977 14.969)"><stop offset=".077" stop-color="#FF83DA"/><stop offset="1" stop-color="#FF83DA" stop-opacity="0"/></radialGradient><radialGradient id="k" cx="0" cy="0" r="1" gradientUnits="userSpaceOnUse" gradientTransform="matrix(0 5.4375 -8.52102 0 15.867 9.719)"><stop offset=".247" stop-color="#CE59A3"/><stop offset="1" stop-color="#B8387F"/></radialGradient><radialGradient id="l" cx="0" cy="0" r="1" gradientUnits="userSpaceOnUse" gradientTransform="rotate(146.867 7.824 9.048) scale(5.82158 1.75385)"><stop stop-color="#BA3A82"/><stop offset="1" stop-color="#BA3A82" stop-opacity="0"/></radialGradient><radialGradient id="q" cx="0" cy="0" r="1" gradientUnits="userSpaceOnUse" gradientTransform="matrix(0 .92504 -5.03125 0 16.04 10.278)"><stop stop-color="#D463A8"/><stop offset="1" stop-color="#D463A8" stop-opacity="0"/></radialGradient><linearGradient id="b" x1="8.684" y1="20.785" x2="5.961" y2="19.865" gradientUnits="userSpaceOnUse"><stop stop-color="#DE47B0"/><stop offset="1" stop-color="#DE47B0" stop-opacity="0"/></linearGradient><linearGradient id="c" x1="3.946" y1="11.25" x2="4.852" y2="12.375" gradientUnits="userSpaceOnUse"><stop offset=".082" stop-color="#E665B5"/><stop offset="1" stop-color="#E665B5" stop-opacity="0"/></linearGradient><linearGradient id="e" x1="24.227" y1="9.906" x2="27.008" y2="19.094" gradientUnits="userSpaceOnUse"><stop offset=".457" stop-color="#FF6ED9"/><stop offset="1" stop-color="#FA5BCA"/></linearGradient><linearGradient id="h" x1="16.04" y1="15.313" x2="16.04" y2="30.017" gradientUnits="userSpaceOnUse"><stop stop-color="#F972CA"/><stop offset="1" stop-color="#F949C4"/></linearGradient><linearGradient id="n" x1="22.071" y1="9.406" x2="15.165" y2="15.75" gradientUnits="userSpaceOnUse"><stop stop-color="#DD53A4"/><stop offset="1" stop-color="#E24B9B"/></linearGradient><filter id="d" x="22.976" y="8.73" width="7.165" height="11.344" filterUnits="userSpaceOnUse" color-interpolation-filters="sRGB"><feFlood flood-opacity="0" result="BackgroundImageFix"/><feBlend in="SourceGraphic" in2="BackgroundImageFix" result="shape"/><feColorMatrix in="SourceAlpha" values="0 0 0 0 0 0 0 0 0 0 0 0 0 0 0 0 0 0 127 0" result="hardAlpha"/><feOffset dx=".25" dy="-.5"/><feGaussianBlur stdDeviation=".5"/><feComposite in2="hardAlpha" operator="arithmetic" k2="-1" k3="1"/><feColorMatrix values="0 0 0 0 0.960784 0 0 0 0 0.305882 0 0 0 0 0.764706 0 0 0 1 0"/><feBlend in2="shape" result="effect1_innerShadow_18_16960"/></filter><filter id="g" x="8.102" y="8.613" width="16.375" height="21.404" filterUnits="userSpaceOnUse" color-interpolation-filters="sRGB"><feFlood flood-opacity="0" result="BackgroundImageFix"/><feBlend in="SourceGraphic" in2="BackgroundImageFix" result="shape"/><feColorMatrix in="SourceAlpha" values="0 0 0 0 0 0 0 0 0 0 0 0 0 0 0 0 0 0 127 0" result="hardAlpha"/><feOffset dx=".5" dy="-.5"/><feGaussianBlur stdDeviation=".75"/><feComposite in2="hardAlpha" operator="arithmetic" k2="-1" k3="1"/><feColorMatrix values="0 0 0 0 0.909804 0 0 0 0 0.223529 0 0 0 0 0.717647 0 0 0 1 0"/><feBlend in2="shape" result="effect1_innerShadow_18_16960"/></filter><filter id="m" x="9.236" y="8.83" width="13.606" height="7.483" filterUnits="userSpaceOnUse" color-interpolation-filters="sRGB"><feFlood flood-opacity="0" result="BackgroundImageFix"/><feBlend in="SourceGraphic" in2="BackgroundImageFix" result="shape"/><feColorMatrix in="SourceAlpha" values="0 0 0 0 0 0 0 0 0 0 0 0 0 0 0 0 0 0 127 0" result="hardAlpha"/><feOffset dx="-.1" dy=".1"/><feGaussianBlur stdDeviation=".075"/><feComposite in2="hardAlpha" operator="arithmetic" k2="-1" k3="1"/><feColorMatrix values="0 0 0 0 0.913725 0 0 0 0 0.411765 0 0 0 0 0.662745 0 0 0 1 0"/><feBlend in2="shape" result="effect1_innerShadow_18_16960"/><feColorMatrix in="SourceAlpha" values="0 0 0 0 0 0 0 0 0 0 0 0 0 0 0 0 0 0 127 0" result="hardAlpha"/><feOffset dx=".1" dy="-.1"/><feGaussianBlur stdDeviation=".075"/><feComposite in2="hardAlpha" operator="arithmetic" k2="-1" k3="1"/><feColorMatrix values="0 0 0 0 0.898039 0 0 0 0 0.247059 0 0 0 0 0.615686 0 0 0 1 0"/><feBlend in2="effect1_innerShadow_18_16960" result="effect2_innerShadow_18_16960"/></filter><filter id="o" x="22.352" y="8.75" width="7.703" height="5.344" filterUnits="userSpaceOnUse" color-interpolation-filters="sRGB"><feFlood flood-opacity="0" result="BackgroundImageFix"/><feBlend in="SourceGraphic" in2="BackgroundImageFix" result="shape"/><feGaussianBlur stdDeviation=".375" result="effect1_foregroundBlur_18_16960"/></filter><filter id="p" x="11.852" y="9.672" width="8.375" height="1.212" filterUnits="userSpaceOnUse" color-interpolation-filters="sRGB"><feFlood flood-opacity="0" result="BackgroundImageFix"/><feBlend in="SourceGraphic" in2="BackgroundImageFix" result="shape"/><feGaussianBlur stdDeviation=".125" result="effect1_foregroundBlur_18_16960"/></filter></defs></svg>
